markets/DEFI.svg

<svg width="43" height="43" viewBox="0 0 43 43" fill="none" xmlns="http://www.w3.org/2000/svg">
<circle cx="21.2938" cy="21.2" r="21" fill="#06061B"/>
<path d="M17.5765 9.06949C17.476 8.95453 17.3522 8.89691 17.205 8.89691H14.1939C14.1671 8.89691 14.1452 8.88844 14.1288 8.87151C14.112 8.85485 14.1036 8.83601 14.1036 8.8158V6.78655C14.1036 6.76634 14.112 6.74777 14.1288 6.73084C14.1452 6.71391 14.1671 6.70544 14.1939 6.70544H17.3757C18.1786 6.70544 18.8713 7.03369 19.4535 7.68962L20.2264 8.63311L18.7208 10.4696L17.5765 9.06949ZM23.1373 7.67952C23.7195 7.03014 24.4154 6.70544 25.225 6.70544H28.3969C28.4236 6.70544 28.4436 6.71227 28.4571 6.72565C28.4704 6.73931 28.4771 6.75951 28.4771 6.78655V8.8158C28.4771 8.83601 28.4704 8.85485 28.4571 8.87151C28.4436 8.88844 28.4236 8.89691 28.3969 8.89691H25.3858C25.2385 8.89691 25.1148 8.95453 25.0143 9.06949L22.7961 11.7683L25.0243 14.4874C25.1248 14.5958 25.245 14.6499 25.3858 14.6499H28.3969C28.4236 14.6499 28.4436 14.6583 28.4571 14.6753C28.4704 14.6922 28.4771 14.7143 28.4771 14.7411V16.7703C28.4771 16.7905 28.4704 16.8094 28.4571 16.826C28.4436 16.843 28.4236 16.8514 28.3969 16.8514H25.225C24.4154 16.8514 23.7227 16.5235 23.1473 15.8673L21.3005 13.6149L19.4535 15.8673C18.8713 16.5235 18.1754 16.8514 17.3657 16.8514H14.1939C14.1671 16.8514 14.1469 16.843 14.1336 16.826C14.1201 16.8091 14.1136 16.7873 14.1136 16.76V14.7307C14.1136 14.7105 14.1201 14.6919 14.1336 14.675C14.1469 14.6581 14.1671 14.6496 14.1939 14.6496H17.205C17.3455 14.6496 17.4692 14.5922 17.5765 14.477L19.7544 11.8189L23.1373 7.67952Z" fill="#00D1FF"/>
<path fill-rule="evenodd" clip-rule="evenodd" d="M8.73058 31.2276C8.38201 31.0138 8.16882 30.633 8.16882 30.2241V27.9409C8.16882 27.8535 8.19216 27.7692 8.23574 27.6943C8.37112 27.4602 8.67144 27.3807 8.90486 27.518L14.0431 30.5222C14.3434 30.6985 14.5286 31.02 14.5286 31.3696V33.7355C14.5286 33.8432 14.499 33.9509 14.443 34.043C14.2734 34.3208 13.9124 34.4082 13.6354 34.238L8.73058 31.2276ZM16.3897 26.8921C16.69 27.0685 16.8752 27.39 16.8752 27.7396V32.5401C16.8752 32.6821 16.7989 32.8132 16.676 32.8819L15.551 33.517C15.537 33.5248 15.5214 33.5311 15.5058 33.5358V30.8702C15.5058 30.5253 15.3253 30.2054 15.0297 30.0274L10.517 27.3198V24.3109C10.517 24.2235 10.5403 24.1392 10.5839 24.0643C10.7193 23.8302 11.0196 23.7506 11.253 23.8879L16.3897 26.8921ZM18.6383 23.3464C18.9402 23.5212 19.1253 23.8458 19.1253 24.1954V31.2073C19.1253 31.3509 19.046 31.4835 18.9199 31.5522L17.854 32.1296V27.248C17.854 26.9031 17.6735 26.5847 17.3794 26.4068L12.7671 23.632V20.7776C12.7671 20.6902 12.7904 20.6059 12.8325 20.531C12.9678 20.2969 13.2682 20.2173 13.5016 20.3531L18.6383 23.3464Z" fill="#00D395"/>
<path d="M25.1757 24.9401C25.1748 24.9516 25.1744 24.9632 25.1743 24.9747V33.2324C25.1743 33.2985 25.1873 33.3639 25.2126 33.425C25.2379 33.486 25.275 33.5415 25.3217 33.5883C25.3685 33.635 25.424 33.6721 25.485 33.6974C25.5461 33.7226 25.6115 33.7356 25.6776 33.7356C25.9555 33.7356 26.1809 33.5103 26.1809 33.2324V31.769C26.1809 31.491 26.4061 31.2656 26.6841 31.2656C26.8175 31.2657 26.9455 31.3187 27.0399 31.4131C27.1343 31.5075 27.1873 31.6355 27.1873 31.769V32.4627C27.1873 32.5962 27.2404 32.7242 27.3347 32.8186C27.4291 32.913 27.5571 32.966 27.6906 32.966C27.7567 32.966 27.8221 32.953 27.8832 32.9277C27.9442 32.9024 27.9997 32.8653 28.0464 32.8186C28.0932 32.7719 28.1302 32.7164 28.1556 32.6553C28.1808 32.5943 28.1938 32.5288 28.1938 32.4627V31.769C28.1938 31.491 28.4191 31.2656 28.6971 31.2656C28.9749 31.2656 29.2004 31.491 29.2004 31.769V31.9583C29.2004 32.0918 29.2534 32.2198 29.3478 32.3142C29.4421 32.4086 29.5701 32.4616 29.7036 32.4616C29.8371 32.4616 29.9651 32.4086 30.0594 32.3142C30.1538 32.2198 30.2068 32.0918 30.2068 31.9583V31.769C30.2068 31.491 30.4322 31.2656 30.71 31.2656C30.988 31.2656 31.2134 31.491 31.2134 31.769V32.4627C31.2134 32.5288 31.2264 32.5943 31.2517 32.6553C31.277 32.7164 31.314 32.7718 31.3607 32.8186C31.4075 32.8653 31.4629 32.9024 31.524 32.9277C31.5851 32.953 31.6505 32.966 31.7166 32.966C31.7827 32.966 31.8481 32.953 31.9092 32.9277C31.9702 32.9024 32.0257 32.8653 32.0724 32.8186C32.1192 32.7719 32.1562 32.7164 32.1815 32.6553C32.2068 32.5943 32.2198 32.5288 32.2198 32.4627V31.769C32.2198 31.6355 32.2729 31.5075 32.3673 31.4131C32.4616 31.3187 32.5896 31.2657 32.7231 31.2656C33.001 31.2656 33.2263 31.491 33.2263 31.769V33.2324C33.2263 33.5103 33.4517 33.7356 33.7296 33.7356C33.8631 33.7356 33.9911 33.6826 34.0855 33.5882C34.1799 33.4939 34.2329 33.3659 34.2329 33.2324V24.9747C34.2329 24.9631 34.2323 24.9515 34.2315 24.9401C34.1759 22.4868 32.17 20.5151 29.7036 20.5151C27.2371 20.5151 25.2312 22.4868 25.1757 24.9401ZM30.5678 24.7406C30.5678 24.2303 30.9286 23.8165 31.3737 23.8165C31.8187 23.8165 32.1796 24.2303 32.1796 24.7406C32.1796 25.251 31.8187 25.6647 31.3737 25.6647C30.9286 25.6647 30.5678 25.251 30.5678 24.7406ZM27.2277 24.7406C27.2277 24.2303 27.5884 23.8165 28.0335 23.8165C28.4786 23.8165 28.8395 24.2303 28.8395 24.7406C28.8395 25.251 28.4786 25.6647 28.0335 25.6647C27.5884 25.6647 27.2277 25.251 27.2277 24.7406ZM30.4711 26.4316C30.4711 26.7285 30.1437 26.9692 29.7397 26.9692C29.3358 26.9692 29.0083 26.7285 29.0083 26.4316C29.0083 26.1346 29.3358 26.3138 29.7397 26.3138C30.1437 26.3138 30.4711 26.1346 30.4711 26.4316Z" fill="url(#paint0_linear_7277_57597)"/>
<defs>
<linearGradient id="paint0_linear_7277_57597" x1="25.1743" y1="33.7543" x2="32.8211" y2="21.9418" gradientUnits="userSpaceOnUse">
<stop stop-color="#50B5AC"/>
<stop offset="1" stop-color="#B22F92"/>
</linearGradient>
</defs>
</svg>

<svg xmlns="http://www.w3.org/2000/svg" width="43" height="43" fill="none"><circle cx="21.294" cy="21.2" r="21" fill="#06061B"/><path fill="#00D1FF" d="M17.576 9.07a.474.474 0 0 0-.371-.173h-3.011a.087.087 0 0 1-.065-.025.077.077 0 0 1-.025-.056v-2.03c0-.02.008-.038.025-.055a.087.087 0 0 1 .065-.026h3.182c.803 0 1.495.329 2.077.985l.773.943-1.505 1.837-1.145-1.4Zm5.561-1.39c.582-.65 1.278-.975 2.088-.975h3.172c.027 0 .047.007.06.02.013.014.02.035.02.062v2.029c0 .02-.007.039-.02.056-.013.016-.033.025-.06.025h-3.011a.474.474 0 0 0-.372.172l-2.218 2.7 2.228 2.718c.1.109.221.163.362.163h3.01c.028 0 .048.008.061.025.013.017.02.04.02.066v2.03c0 .02-.007.038-.02.055-.013.017-.033.025-.06.025h-3.172c-.81 0-1.502-.328-2.078-.984l-1.846-2.252-1.848 2.252c-.582.656-1.278.984-2.087.984h-3.172c-.027 0-.047-.008-.06-.025a.102.102 0 0 1-.02-.066v-2.03c0-.02.006-.038.02-.055.013-.017.033-.025.06-.025h3.011c.14 0 .264-.058.372-.173l2.177-2.658 3.383-4.14Z"/><path fill="#00D395" fill-rule="evenodd" d="M8.73 31.228a1.179 1.179 0 0 1-.561-1.004v-2.283a.489.489 0 0 1 .736-.423l5.138 3.004c.3.177.486.498.486.848v2.366a.586.586 0 0 1-.893.502l-4.905-3.01Zm7.66-4.336c.3.177.485.498.485.848v4.8a.391.391 0 0 1-.199.342l-1.125.635a.23.23 0 0 1-.045.019V30.87a.984.984 0 0 0-.476-.843l-4.513-2.707v-3.01a.488.488 0 0 1 .736-.422l5.137 3.004Zm2.248-3.546a.98.98 0 0 1 .487.85v7.011c0 .144-.079.276-.205.345l-1.066.578v-4.882a.983.983 0 0 0-.475-.841l-4.612-2.775v-2.854a.49.49 0 0 1 .735-.424l5.136 2.992Z" clip-rule="evenodd"/><path fill="url(#a)" d="M25.176 24.94a.5.5 0 0 0-.002.035v8.257a.503.503 0 1 0 1.007 0V31.77a.503.503 0 1 1 1.006 0v.694a.504.504 0 0 0 1.007 0v-.694a.503.503 0 1 1 1.006 0v.19a.503.503 0 1 0 1.007 0v-.19a.503.503 0 1 1 1.006 0v.694a.503.503 0 1 0 1.007 0v-.694a.503.503 0 0 1 1.006 0v1.463a.503.503 0 0 0 1.007 0v-8.257c0-.012 0-.024-.002-.035a4.53 4.53 0 0 0-9.055 0Zm5.392-.2c0-.51.36-.923.806-.923.445 0 .806.413.806.924 0 .51-.361.924-.806.924-.445 0-.806-.414-.806-.924Zm-3.34 0c0-.51.36-.923.805-.923.446 0 .806.413.806.924 0 .51-.36.924-.805.924-.446 0-.806-.414-.806-.924Zm3.243 1.692c0 .297-.327.537-.731.537-.404 0-.732-.24-.732-.537 0-.297.328-.118.732-.118.404 0 .731-.18.731.118Z"/><defs><linearGradient id="a" x1="25.174" x2="32.821" y1="33.754" y2="21.942" gradientUnits="userSpaceOnUse"><stop stop-color="#50B5AC"/><stop offset="1" stop-color="#B22F92"/></linearGradient></defs></svg>
